X: 8
T: the Salamanca
R: reel
Z: 2012 John Chambers <jc@trillian.mit.edu>
B: "100 Essential Irish Session Tunes" 1995 Dave Mallinson, ed.
M: 4/4
L: 1/8
K: D
dB |\
"D"ADF{E}D ADF{E}D | Adcd fedc | "Em"BEG{F}E BEG{F}E | Beed "A7"cdeg |
"Bm"fBBd fedB | "A7"dfeg "G"dfag | "D"fdec "G"dBAG | "A7"FGEF "D"D2 :|
|: fg |\
"D"afdg "G"bgeg | "D"fdec "A"dcBA | "D"Bddc "Bm"defg | "Em"abgb "A7"a2fg |
"D"abaf "G"gfeg | "A"fdec "G"dfag | "D"fdec "G"dBAG | "A7"FGEF "D"D2 :|
